!!!OTL: WO ICH SEI UND WO MICH HINGEWENDET
!!!ARE: Europa, Mitteleuropa, Deutschland
!!!SCT: B0480
!!!YEM: Copyright 1995, estate of Helmut Schaffrath.
**kern
*ICvox
*Ivox
*M4/4
*k[f#]
*G:
{8d
8d
=1
4.g
8g
8f#
8g
8cc
8b
=2
8g#
8a
4a
4r}
{8d
8d
=3
4.b
8g
8e
8e
8a
8g
=4
2f#
4r}
{8cc
8a
=5
8g
4f#
8a
8dd
8cc
8b
8a
=6
8.a
16g
4g
4r}
{8dd
8b
=7
8a
4g#
8b
8ee
8dd
8cc
8b
=8
2cc}
{4.dd
8cc
=9
8b
16a
16b
16dd
16cc
16b
16a
4g
8.a
16g
=10
2g
4r}
==
!!!AGN: Liebes - Lied, Leid, Klage, Tod
!!!ONB: ESAC (Essen Associative Code) Database: BOEHME
!!!AMT: simple quadruple
!!!AIN: vox
!!!EED: Helmut Schaffrath
!!!EEV: 1.0
*-
